assets/img/icons/ab_testing.svg

<svg fill="none" height="64" viewBox="0 0 64 64" width="64" xmlns="http://www.w3.org/2000/svg"><path d="m10 54 44-44" stroke="#000" stroke-width="2"/><g fill="#000"><path d="m29.278 28h-4.9902l-1.224-2.8011h-6.7555l-1.224 2.8011h-4.9901l7.6735-17.6068h3.8368zm-11.4397-6.2848h3.6955l-1.8595-4.284z"/><path d="m37.5535 34.3932h7.8383c3.2719 0 5.6493 1.5771 5.6493 5.0137 0 1.53-.6826 2.5657-1.4359 3.2954 1.1063.5649 2.1185 1.9302 2.1185 4.0015 0 3.4131-2.3303 5.2962-5.8611 5.2962h-8.3091zm4.543 4.0251v2.6599h2.7304c.9651 0 1.5771-.4002 1.5771-1.3182 0-.9651-.5885-1.3417-1.53-1.3417zm0 6.5202v3.0364h3.2247c1.1063 0 1.7654-.4472 1.7654-1.5064 0-1.0593-.6591-1.53-1.7889-1.53z"/></g></svg>

<svg width="64" height="64" viewBox="0 0 64 64" fill="none" xmlns="http://www.w3.org/2000/svg">
<path d="M10 54L54 10" stroke="black" stroke-width="2"/>
<path d="M29.278 28H24.2878L23.0638 25.1989H16.3083L15.0843 28H10.0942L17.7677 10.3932H21.6045L29.278 28ZM17.8383 21.7152H21.5338L19.6743 17.4312L17.8383 21.7152Z" fill="black"/>
<path d="M37.5535 34.3932H45.3918C48.6637 34.3932 51.0411 35.9703 51.0411 39.4069C51.0411 40.9369 50.3585 41.9726 49.6052 42.7023C50.7115 43.2672 51.7237 44.6325 51.7237 46.7038C51.7237 50.1169 49.3934 52 45.8626 52H37.5535V34.3932ZM42.0965 38.4183V41.0782H44.8269C45.792 41.0782 46.404 40.678 46.404 39.76C46.404 38.7949 45.8155 38.4183 44.874 38.4183H42.0965ZM42.0965 44.9385V47.9749H45.3212C46.4275 47.9749 47.0866 47.5277 47.0866 46.4685C47.0866 45.4092 46.4275 44.9385 45.2977 44.9385H42.0965Z" fill="black"/>
</svg>
